X:3553
T:Lasses keep your Legs together
O:england
M:2/2
L:1/8
N:Key signature is given as two sharps, shown, unusually, on each line,
N:variously D# (second line down) and the lower E, F or G.  It feels as
N:if it ought to be G major.  The first time bars are marked with a line
N:over it, the second time bars ares marked with a similar line and '2n
K:D major
DGBG cABG|GB dG FAA2|DGBG cABG|FGAF DGG2:||:Bdgd ecdB|BGdG FAA|1Bdgd ecd
B|cABG DGG2||2egeg Bgcg|BGdG DGG2||GDB,G, ECCD|DB,GB, G,2AA
|GDB,G, DB,B,E|DGFA GA,A,2:||


